X:131
T:Humors of Drinagh, The  
B:CRE2.002 (PlÃÂÃÂÃÂÃÂ©arÃÂÃÂÃÂÃÂ¡ca DhraighnÃÂÃÂÃÂÃÂ­)
F:file ID: cre.2/131hu_drin
L:1/8
M:6/8
R:jig
Q:160
K:D
A/G/|FDF ABc|dfd ecA|F2F ABc|dcA GBG|
FEF ABc|dfd ecA|gf/e/f gec|Adc d2:|
|:e|gf/e/f gfg|agf gfe|gf/e/f gfg|agf g2g|
agf g2e|f2d ecA|gef gec|Adc d2:|

%%%

